proprietary/assets/icons/voedsel/gevuld-wijnglas.svg

<svg height="64" viewBox="0 0 64 64" width="64" xmlns="http://www.w3.org/2000/svg"><path d="m0 0h64v64h-64z" fill="none"/><path d="m46.9277 28.5332c3.0151-10.9019-1.5229-22.001-2.0522-23.2354-.2891-.6694-.8892-1.1489-1.5986-1.2812-.8956-.1699-5.648-1.0166-11.2769-1.0166s-10.3813.8467-11.271 1.0151c-.7153.1338-1.3154.6133-1.6064 1.2876-.5273 1.2295-5.0654 12.3286-2.0503 23.2305 2.0369 7.3642 8.187 10.0159 11.9277 10.9584v17.5865c-1.8502.1808-6.3416.6441-7.7613 1.0151-1.824.4766-1.4746 2.9025.0226 2.9042h21.4775c1.4971-.0017 1.8465-2.4276.0225-2.9042-1.4193-.3708-5.9099-.8341-7.7612-1.015v-17.5866c3.7406-.9425 9.8907-3.5942 11.9276-10.9584zm-23.9277-13.5332s-2.4839 9.0212 1.7093 15.6815c1.8532 2.9435 3.6116 4.0435 3.6116 4.0435s-.0223.5842-1.1879.0806c-2.4944-1.1559-5.2141-3.2953-6.3159-7.2791-2.3188-8.3838.4379-17.0073 1.5269-19.8864 1.7708-.2875 5.4468-.7851 9.656-.7851 4.2067 0 7.8812.4971 9.6561.7851.5181 1.3705 1.407 4.0425 1.9539 7.3599z"/></svg>

<?xml version="1.0" encoding="utf-8"?>
<!-- Generator: Adobe Illustrator 19.1.0, SVG Export Plug-In . SVG Version: 6.00 Build 0)  -->
<svg version="1.2" baseProfile="tiny" xmlns="http://www.w3.org/2000/svg" xmlns:xlink="http://www.w3.org/1999/xlink" x="0px"
	 y="0px" width="64px" height="64px" viewBox="0 0 64 64" xml:space="preserve">
<g id="Box">
	<rect fill="none" width="64" height="64"/>
</g>
<g id="Icon">
	<path d="M46.9277,28.5332c3.0151-10.9019-1.5229-22.001-2.0522-23.2354c-0.2891-0.6694-0.8892-1.1489-1.5986-1.2812
		C42.3813,3.8467,37.6289,3,32,3S21.6187,3.8467,20.729,4.0151c-0.7153,0.1338-1.3154,0.6133-1.6064,1.2876
		c-0.5273,1.2295-5.0654,12.3286-2.0503,23.2305C19.1092,35.8974,25.2593,38.5491,29,39.4916v17.5865
		c-1.8502,0.1808-6.3416,0.6441-7.7613,1.0151c-1.824,0.4766-1.4746,2.9025,0.0226,2.9042h21.4775
		c1.4971-0.0017,1.8465-2.4276,0.0225-2.9042c-1.4193-0.3708-5.9099-0.8341-7.7612-1.015V39.4916
		C38.7407,38.5491,44.8908,35.8974,46.9277,28.5332z M23,15c0,0-2.4839,9.0212,1.7093,15.6815
		c1.8532,2.9435,3.6116,4.0435,3.6116,4.0435s-0.0223,0.5842-1.1879,0.0806c-2.4944-1.1559-5.2141-3.2953-6.3159-7.2791
		c-2.3188-8.3838,0.4379-17.0073,1.5269-19.8864C24.1148,7.3526,27.7908,6.855,32,6.855c4.2067,0,7.8812,0.4971,9.6561,0.7851
		C42.1742,9.0106,43.0631,11.6826,43.61,15H23z"/>
</g>
</svg>
